app/assets/images/icons/active/print.svg

<?xml version="1.0" encoding="UTF-8" standalone="no"?>
<svg width="32px" height="232px" viewBox="0 0 32 232" version="1.1" xmlns="http://www.w3.org/2000/svg" xmlns:xlink="http://www.w3.org/1999/xlink" xmlns:sketch="http://www.bohemiancoding.com/sketch/ns">
    <title>print</title>
    <description>Created with Sketch (http://www.bohemiancoding.com/sketch)</description>
    <defs></defs>
    <g id="Actions" stroke="none" stroke-width="1" fill="none" fill-rule="evenodd" sketch:type="MSPage">
        <path d="M26.124,132.223527 L23.159,132.223527 L23.159,127.258527 C23.159,125.345527 21.604,123.790527 19.692,123.790527 L11.805,123.790527 C9.893,123.790527 8.338,125.345527 8.338,127.258527 L8.338,132.223527 L5.823,132.223527 C4.526,132.223527 3.473,133.274527 3.473,134.571527 L3.473,143.018527 C3.473,144.315527 4.526,145.368527 5.823,145.368527 L8.338,145.368527 L8.338,145.768527 C8.338,147.681527 9.893,149.235527 11.805,149.235527 L19.692,149.235527 C21.604,149.235527 23.159,147.681527 23.159,145.768527 L23.159,145.368527 L26.124,145.368527 C27.42,145.368527 28.473,144.315527 28.473,143.018527 L28.473,134.571527 C28.473,133.274527 27.42,132.223527 26.124,132.223527 L26.124,132.223527 L26.124,132.223527 L26.124,132.223527 Z M10.577,127.258527 C10.577,126.579527 11.129,126.028527 11.805,126.028527 L19.692,126.028527 C20.37,126.028527 20.922,126.579527 20.922,127.258527 L20.922,132.223527 L10.577,132.223527 L10.577,127.258527 L10.577,127.258527 L10.577,127.258527 L10.577,127.258527 Z M20.922,145.768527 C20.922,146.446527 20.37,146.999527 19.692,146.999527 L11.805,146.999527 C11.129,146.999527 10.577,146.446527 10.577,145.768527 L10.577,142.778527 L20.922,142.778527 L20.922,145.768527 L20.922,145.768527 L20.922,145.768527 L20.922,145.768527 Z M23.762,138.124527 L8.116,138.124527 C7.092,138.124527 6.262,137.505527 6.262,136.743527 C6.262,135.979527 7.092,135.361527 8.116,135.361527 L23.762,135.361527 C24.784,135.361527 25.614,135.979527 25.614,136.743527 C25.614,137.505527 24.784,138.124527 23.762,138.124527 L23.762,138.124527 Z M23.762,138.124527" id="print--lp-blue" fill="#206FAC" sketch:type="MSShapeGroup"></path>
        <path d="M26.124,92.2235273 L23.159,92.2235273 L23.159,87.2585273 C23.159,85.3455273 21.604,83.7905273 19.692,83.7905273 L11.805,83.7905273 C9.893,83.7905273 8.338,85.3455273 8.338,87.2585273 L8.338,92.2235273 L5.823,92.2235273 C4.526,92.2235273 3.473,93.2745273 3.473,94.5715273 L3.473,103.018527 C3.473,104.315527 4.526,105.368527 5.823,105.368527 L8.338,105.368527 L8.338,105.768527 C8.338,107.681527 9.893,109.235527 11.805,109.235527 L19.692,109.235527 C21.604,109.235527 23.159,107.681527 23.159,105.768527 L23.159,105.368527 L26.124,105.368527 C27.42,105.368527 28.473,104.315527 28.473,103.018527 L28.473,94.5715273 C28.473,93.2745273 27.42,92.2235273 26.124,92.2235273 L26.124,92.2235273 L26.124,92.2235273 L26.124,92.2235273 Z M10.577,87.2585273 C10.577,86.5795273 11.129,86.0285273 11.805,86.0285273 L19.692,86.0285273 C20.37,86.0285273 20.922,86.5795273 20.922,87.2585273 L20.922,92.2235273 L10.577,92.2235273 L10.577,87.2585273 L10.577,87.2585273 L10.577,87.2585273 L10.577,87.2585273 Z M20.922,105.768527 C20.922,106.446527 20.37,106.999527 19.692,106.999527 L11.805,106.999527 C11.129,106.999527 10.577,106.446527 10.577,105.768527 L10.577,102.778527 L20.922,102.778527 L20.922,105.768527 L20.922,105.768527 L20.922,105.768527 L20.922,105.768527 Z M23.762,98.1245273 L8.116,98.1245273 C7.092,98.1245273 6.262,97.5055273 6.262,96.7435273 C6.262,95.9795273 7.092,95.3615273 8.116,95.3615273 L23.762,95.3615273 C24.784,95.3615273 25.614,95.9795273 25.614,96.7435273 C25.614,97.5055273 24.784,98.1245273 23.762,98.1245273 L23.762,98.1245273 Z M23.762,98.1245273" id="print--white" fill="#FFFFFF" sketch:type="MSShapeGroup"></path>
        <path d="M26.124,52.2235273 L23.159,52.2235273 L23.159,47.2585273 C23.159,45.3455273 21.604,43.7905273 19.692,43.7905273 L11.805,43.7905273 C9.893,43.7905273 8.338,45.3455273 8.338,47.2585273 L8.338,52.2235273 L5.823,52.2235273 C4.526,52.2235273 3.473,53.2745273 3.473,54.5715273 L3.473,63.0185273 C3.473,64.3155273 4.526,65.3685273 5.823,65.3685273 L8.338,65.3685273 L8.338,65.7685273 C8.338,67.6815273 9.893,69.2355273 11.805,69.2355273 L19.692,69.2355273 C21.604,69.2355273 23.159,67.6815273 23.159,65.7685273 L23.159,65.3685273 L26.124,65.3685273 C27.42,65.3685273 28.473,64.3155273 28.473,63.0185273 L28.473,54.5715273 C28.473,53.2745273 27.42,52.2235273 26.124,52.2235273 L26.124,52.2235273 L26.124,52.2235273 L26.124,52.2235273 Z M10.577,47.2585273 C10.577,46.5795273 11.129,46.0285273 11.805,46.0285273 L19.692,46.0285273 C20.37,46.0285273 20.922,46.5795273 20.922,47.2585273 L20.922,52.2235273 L10.577,52.2235273 L10.577,47.2585273 L10.577,47.2585273 L10.577,47.2585273 L10.577,47.2585273 Z M20.922,65.7685273 C20.922,66.4465273 20.37,66.9995273 19.692,66.9995273 L11.805,66.9995273 C11.129,66.9995273 10.577,66.4465273 10.577,65.7685273 L10.577,62.7785273 L20.922,62.7785273 L20.922,65.7685273 L20.922,65.7685273 L20.922,65.7685273 L20.922,65.7685273 Z M23.762,58.1245273 L8.116,58.1245273 C7.092,58.1245273 6.262,57.5055273 6.262,56.7435273 C6.262,55.9795273 7.092,55.3615273 8.116,55.3615273 L23.762,55.3615273 C24.784,55.3615273 25.614,55.9795273 25.614,56.7435273 C25.614,57.5055273 24.784,58.1245273 23.762,58.1245273 L23.762,58.1245273 Z M23.762,58.1245273" id="print--body-grey" fill="#67737B" sketch:type="MSShapeGroup"></path>
        <path d="M26.124,12.2235273 L23.159,12.2235273 L23.159,7.25852734 C23.159,5.34552734 21.604,3.79052734 19.692,3.79052734 L11.805,3.79052734 C9.893,3.79052734 8.338,5.34552734 8.338,7.25852734 L8.338,12.2235273 L5.823,12.2235273 C4.526,12.2235273 3.473,13.2745273 3.473,14.5715273 L3.473,23.0185273 C3.473,24.3155273 4.526,25.3685273 5.823,25.3685273 L8.338,25.3685273 L8.338,25.7685273 C8.338,27.6815273 9.893,29.2355273 11.805,29.2355273 L19.692,29.2355273 C21.604,29.2355273 23.159,27.6815273 23.159,25.7685273 L23.159,25.3685273 L26.124,25.3685273 C27.42,25.3685273 28.473,24.3155273 28.473,23.0185273 L28.473,14.5715273 C28.473,13.2745273 27.42,12.2235273 26.124,12.2235273 L26.124,12.2235273 L26.124,12.2235273 L26.124,12.2235273 Z M10.577,7.25852734 C10.577,6.57952734 11.129,6.02852734 11.805,6.02852734 L19.692,6.02852734 C20.37,6.02852734 20.922,6.57952734 20.922,7.25852734 L20.922,12.2235273 L10.577,12.2235273 L10.577,7.25852734 L10.577,7.25852734 L10.577,7.25852734 L10.577,7.25852734 Z M20.922,25.7685273 C20.922,26.4465273 20.37,26.9995273 19.692,26.9995273 L11.805,26.9995273 C11.129,26.9995273 10.577,26.4465273 10.577,25.7685273 L10.577,22.7785273 L20.922,22.7785273 L20.922,25.7685273 L20.922,25.7685273 L20.922,25.7685273 L20.922,25.7685273 Z M23.762,18.1245273 L8.116,18.1245273 C7.092,18.1245273 6.262,17.5055273 6.262,16.7435273 C6.262,15.9795273 7.092,15.3615273 8.116,15.3615273 L23.762,15.3615273 C24.784,15.3615273 25.614,15.9795273 25.614,16.7435273 C25.614,17.5055273 24.784,18.1245273 23.762,18.1245273 L23.762,18.1245273 Z M23.762,18.1245273" id="print--title-grey" fill="#3A434E" sketch:type="MSShapeGroup"></path>
    </g>
</svg>

<svg width="32" height="232" viewBox="0 0 32 232" xmlns="http://www.w3.org/2000/svg" xmlns:sketch="http://www.bohemiancoding.com/sketch/ns"><title>print</title><g sketch:type="MSPage" fill="none"><path d="M26.124 132.224h-2.965v-4.965c0-1.913-1.555-3.468-3.467-3.468h-7.887c-1.912 0-3.467 1.555-3.467 3.468v4.965h-2.515c-1.297 0-2.35 1.051-2.35 2.348v8.447c0 1.297 1.053 2.35 2.35 2.35h2.515v.4c0 1.913 1.555 3.467 3.467 3.467h7.887c1.912 0 3.467-1.554 3.467-3.467v-.4h2.965c1.296 0 2.349-1.053 2.349-2.35v-8.447c0-1.297-1.053-2.348-2.349-2.348zm-15.547-4.965c0-.679.552-1.23 1.228-1.23h7.887c.678 0 1.23.551 1.23 1.23v4.965h-10.345v-4.965zm10.345 18.51c0 .678-.552 1.231-1.23 1.231h-7.887c-.676 0-1.228-.553-1.228-1.231v-2.99h10.345v2.99zm2.84-7.644h-15.646c-1.024 0-1.854-.619-1.854-1.381 0-.764.83-1.382 1.854-1.382h15.646c1.022 0 1.852.618 1.852 1.382 0 .762-.83 1.381-1.852 1.381zm0 0" fill="#206FAC" sketch:type="MSShapeGroup"/><path d="M26.124 92.224h-2.965v-4.965c0-1.913-1.555-3.468-3.467-3.468h-7.887c-1.912 0-3.467 1.555-3.467 3.468v4.965h-2.515c-1.297 0-2.35 1.051-2.35 2.348v8.447c0 1.297 1.053 2.35 2.35 2.35h2.515v.4c0 1.913 1.555 3.467 3.467 3.467h7.887c1.912 0 3.467-1.554 3.467-3.467v-.4h2.965c1.296 0 2.349-1.053 2.349-2.35v-8.447c0-1.297-1.053-2.348-2.349-2.348zm-15.547-4.965c0-.679.552-1.23 1.228-1.23h7.887c.678 0 1.23.551 1.23 1.23v4.965h-10.345v-4.965zm10.345 18.51c0 .678-.552 1.231-1.23 1.231h-7.887c-.676 0-1.228-.553-1.228-1.231v-2.99h10.345v2.99zm2.84-7.644h-15.646c-1.024 0-1.854-.619-1.854-1.381 0-.764.83-1.382 1.854-1.382h15.646c1.022 0 1.852.618 1.852 1.382 0 .762-.83 1.381-1.852 1.381zm0 0" fill="#fff" sketch:type="MSShapeGroup"/><path d="M26.124 52.224h-2.965v-4.965c0-1.913-1.555-3.468-3.467-3.468h-7.887c-1.912 0-3.467 1.555-3.467 3.468v4.965h-2.515c-1.297 0-2.35 1.051-2.35 2.348v8.447c0 1.297 1.053 2.35 2.35 2.35h2.515v.4c0 1.913 1.555 3.467 3.467 3.467h7.887c1.912 0 3.467-1.554 3.467-3.467v-.4h2.965c1.296 0 2.349-1.053 2.349-2.35v-8.447c0-1.297-1.053-2.348-2.349-2.348zm-15.547-4.965c0-.679.552-1.23 1.228-1.23h7.887c.678 0 1.23.551 1.23 1.23v4.965h-10.345v-4.965zm10.345 18.51c0 .678-.552 1.231-1.23 1.231h-7.887c-.676 0-1.228-.553-1.228-1.231v-2.99h10.345v2.99zm2.84-7.644h-15.646c-1.024 0-1.854-.619-1.854-1.381 0-.764.83-1.382 1.854-1.382h15.646c1.022 0 1.852.618 1.852 1.382 0 .762-.83 1.381-1.852 1.381zm0 0" fill="#67737B" sketch:type="MSShapeGroup"/><path d="M26.124 12.224h-2.965v-4.965c0-1.913-1.555-3.468-3.467-3.468h-7.887c-1.912 0-3.467 1.555-3.467 3.468v4.965h-2.515c-1.297 0-2.35 1.051-2.35 2.348v8.447c0 1.297 1.053 2.35 2.35 2.35h2.515v.4c0 1.913 1.555 3.467 3.467 3.467h7.887c1.912 0 3.467-1.554 3.467-3.467v-.4h2.965c1.296 0 2.349-1.053 2.349-2.35v-8.447c0-1.297-1.053-2.348-2.349-2.348zm-15.547-4.965c0-.679.552-1.23 1.228-1.23h7.887c.678 0 1.23.551 1.23 1.23v4.965h-10.345v-4.965zm10.345 18.51c0 .678-.552 1.231-1.23 1.231h-7.887c-.676 0-1.228-.553-1.228-1.231v-2.99h10.345v2.99zm2.84-7.644h-15.646c-1.024 0-1.854-.619-1.854-1.381 0-.764.83-1.382 1.854-1.382h15.646c1.022 0 1.852.618 1.852 1.382 0 .762-.83 1.381-1.852 1.381zm0 0" fill="#3A434E" sketch:type="MSShapeGroup"/></g></svg>
